X:212
T:Steirische Jodler und Taenze Nr. 1 - 48 (10.)
C:traditionell
A:Salzkammergut
S:MIDI erhalten von Christian Amon. Nach einer kopie im besitz von Johann Stoeckl eines manuscriptes. Stoeckl(zitiert von Amon): "diese sammlung wurde 1935 im hause der familie Hohenlohe-Schillingfuerst gefunden. Sie wurde von einem der beiden brueder Steinegger 1866 verfasst. Die originale sind im Ausseer Kammerhofmuseum".
M:3/4
L:1/8
K:G
V:1
BG |\
Ac c2 Ac | cB G2 BG | Ad d2 cF | Gd d2 BG |\
Ac c2 Ac | cB G2 BG | Ac d2 cA | G4 |*
V:2
dB |\
ce e2 ce | ed B2 dB | cf f2 eA | Bg g2 dB |\
ce e2 ce | ed B2 dB | cf f2 ec | B4 |*
